X: 38012
T: Spellan The Fiddler
R: hornpipe
M: 4/4
K: Fmajor
(3CDE|:F>CA>F c>Af>c|a>fc>A B>AG>F|E>c(3c=Bc G>cB>d|c>=Bc>d _B>GE>C|
F>CA>F c>Af>c|a>fc>A B>AG>F|e>dc>=B d>_BG>F|1 (3EFG (3CDE F2 (3CDE:|2 (3EFG (3CDE F2 f>g||
|:a>fc>A F>Ac>f|g>ec>G E>Gc>e|g>ca>c b>ag>f|e>dc>=B _B>GE>C|
F>CA>F c>Af>c|a>fc>A B>AG>F|e>dc>=B d>_BG>F|1 (3EFG (3CDE F2 f>g:|2 (3EFG (3CDE F2 (3CDE||

